Yaru++/apps/symbolic/code-symbolic.svg

<svg height="16" viewBox="0 0 16 16" width="16" xmlns="http://www.w3.org/2000/svg"><path d="m11.378769 15.495356c-.04471-.0047-.115069-.01847-.156344-.03061-.07782-.02288-.236882-.09408-.228657-.10236.0026-.0026.03206.0035.0655.01369.120197.03639.286085.01745.411954-.04707.111968-.05738.224869-.196088.264235-.32463.01978-.06459.02161-.526749.02735-6.9212257.0043-4.7339869.0021-6.8880007-.007-6.9684358-.02723-.2418708-.156144-.40583881-.379229-.48235709-.09561-.0327894-.251934-.0359788-.332434-.006741-.07497.0272054-.06599.0146994.02127-.0296201.192303-.0976639.452615-.12347582.656838-.065116.08472.0242072 1.330973.61943249 3.134624 1.49712549.224655.1093228.329707.1834083.42753.3015084.07656.092422.150312.2354286.186775.362129l.02877.099958v5.2035027c0 4.9520301-.0011 5.2077611-.02231 5.2915931-.01227.04844-.04817.141704-.07978.207236-.04909.101771-.07411.135738-.171555.232901-.09373.09346-.136408.125324-.239164.178592-.221298.114723-3.099183 1.503598-3.176912 1.533187-.133019.05064-.291488.07148-.43151.05677zm-.86203-.548658c-.03041-.01112-.07544-.03309-.10006-.04884-.05325-.034055-9.56763428-8.8079842-9.71381478-8.9578364-.1160686-.1189856-.159641-.1980302-.1889962-.3428579-.016626-.082029-.017748-.115624-.00633-.1895204.018422-.1192189.05424-.2114004.1119111-.2880173.073414-.0975331.94684108-.8924044 1.02948338-.936896.1761735-.0948467.3777873-.1014468.5619131-.0184019.044713.0201626.5231036.3857577 1.3633205 1.0418643 1.0665331.8328322 1.2979236 1.0083565 1.3142447.996937.018605-.0130191 1.9680619-1.8181687 4.4109721-4.0844593 1.2267881-1.13809331 1.1656481-1.0891205 1.3589431-1.0884836.09102.0003018.126361.00614.176366.028906.142953.065206.228569.1580802.270405.2933225.02254.072883.02352.1480845.02352 1.8108311v1.7347915l-1.9605551 1.5626339c-1.0783052.859448-1.9617631 1.5661935-1.9632415 1.5705449-.00148.00433.8804423.6959459 1.9598219 1.5368747l1.9625077 1.5289619-.0024 1.755475-.0024 1.755474-.03007.07512c-.03819.0954-.136743.196915-.23549.242553-.09172.04239-.254133.05244-.34007.02103zm-8.7161616-3.070151c-.1206364-.03267-.2045018-.084281-.3460095-.212936-.55288018-.502661-.80619398-.739873-.83507258-.781989-.095087-.138671-.13598178-.308551-.1109668-.460966.018567-.113127.082391-.248502.1536838-.325972.058439-.06351 1.95236368-1.7068417 1.97893338-1.7170998.013532-.00522 1.9098344 1.7185678 1.9171138 1.7427108.00419.01389-2.255919 1.66765-2.3343374 1.708071-.1294216.06671-.2881997.08478-.4233447.04818z" fill="#808080" stroke-width=".012546"/></svg>

<?xml version="1.0" encoding="UTF-8" standalone="no"?>
<!-- Created with Inkscape (http://www.inkscape.org/) -->

<svg
   xmlns:dc="http://purl.org/dc/elements/1.1/"
   xmlns:cc="http://creativecommons.org/ns#"
   xmlns:rdf="http://www.w3.org/1999/02/22-rdf-syntax-ns#"
   xmlns:svg="http://www.w3.org/2000/svg"
   xmlns="http://www.w3.org/2000/svg"
   xmlns:sodipodi="http://sodipodi.sourceforge.net/DTD/sodipodi-0.dtd"
   xmlns:inkscape="http://www.inkscape.org/namespaces/inkscape"
   version="1.1"
   id="svg2"
   width="16"
   height="16"
   viewBox="0 0 16 16"
   sodipodi:docname="code-symbolic.svg"
   inkscape:version="0.92.5 (2060ec1f9f, 2020-04-08)">
  <metadata
     id="metadata8">
    <rdf:RDF>
      <cc:Work
         rdf:about="">
        <dc:format>image/svg+xml</dc:format>
        <dc:type
           rdf:resource="http://purl.org/dc/dcmitype/StillImage" />
        <dc:title></dc:title>
      </cc:Work>
    </rdf:RDF>
  </metadata>
  <defs
     id="defs6" />
  <sodipodi:namedview
     pagecolor="#ffffff"
     bordercolor="#666666"
     borderopacity="1"
     objecttolerance="10"
     gridtolerance="10"
     guidetolerance="10"
     inkscape:pageopacity="0"
     inkscape:pageshadow="2"
     inkscape:window-width="1920"
     inkscape:window-height="1016"
     id="namedview4"
     showgrid="false"
     inkscape:zoom="56.610898"
     inkscape:cx="8.4999755"
     inkscape:cy="10.280714"
     inkscape:window-x="0"
     inkscape:window-y="27"
     inkscape:window-maximized="1"
     inkscape:current-layer="svg2" />
  <path
     style="fill:#808080;fill-opacity:1;stroke-width:0.01254573"
     d="m 11.378769,15.495356 c -0.04471,-0.0047 -0.115069,-0.01847 -0.156344,-0.03061 -0.07782,-0.02288 -0.236882,-0.09408 -0.228657,-0.10236 0.0026,-0.0026 0.03206,0.0035 0.0655,0.01369 0.120197,0.03639 0.286085,0.01745 0.411954,-0.04707 0.111968,-0.05738 0.224869,-0.196088 0.264235,-0.32463 0.01978,-0.06459 0.02161,-0.526749 0.02735,-6.9212257 0.0043,-4.7339869 0.0021,-6.8880007 -0.007,-6.9684358 -0.02723,-0.2418708 -0.156144,-0.40583881 -0.379229,-0.48235709 -0.09561,-0.0327894 -0.251934,-0.0359788 -0.332434,-0.006741 -0.07497,0.0272054 -0.06599,0.0146994 0.02127,-0.0296201 0.192303,-0.0976639 0.452615,-0.12347582 0.656838,-0.065116 0.08472,0.0242072 1.330973,0.61943249 3.134624,1.49712549 0.224655,0.1093228 0.329707,0.1834083 0.42753,0.3015084 0.07656,0.092422 0.150312,0.2354286 0.186775,0.362129 l 0.02877,0.099958 v 5.2035027 c 0,4.9520301 -0.0011,5.2077611 -0.02231,5.2915931 -0.01227,0.04844 -0.04817,0.141704 -0.07978,0.207236 -0.04909,0.101771 -0.07411,0.135738 -0.171555,0.232901 -0.09373,0.09346 -0.136408,0.125324 -0.239164,0.178592 -0.221298,0.114723 -3.099183,1.503598 -3.176912,1.533187 -0.133019,0.05064 -0.291488,0.07148 -0.43151,0.05677 z m -0.86203,-0.548658 c -0.03041,-0.01112 -0.07544,-0.03309 -0.10006,-0.04884 C 10.363429,14.863803 0.84904472,6.0898738 0.70286422,5.9400216 0.58679562,5.821036 0.54322322,5.7419914 0.51386802,5.5971637 c -0.016626,-0.082029 -0.017748,-0.115624 -0.00633,-0.1895204 0.018422,-0.1192189 0.05424,-0.2114004 0.1119111,-0.2880173 C 0.69286312,5.0220929 1.5662902,4.2272216 1.6489325,4.18273 1.825106,4.0878833 2.0267198,4.0812832 2.2108456,4.1643281 2.2555586,4.1844907 2.7339492,4.5500858 3.5741661,5.2061924 4.6406992,6.0390246 4.8720897,6.2145489 4.8884108,6.2031294 4.9070158,6.1901103 6.8564727,4.3849607 9.2993829,2.1186701 10.526171,0.98057679 10.465031,1.0295496 10.658326,1.0301865 c 0.09102,3.018e-4 0.126361,0.00614 0.176366,0.028906 0.142953,0.065206 0.228569,0.1580802 0.270405,0.2933225 0.02254,0.072883 0.02352,0.1480845 0.02352,1.8108311 V 4.8980376 L 9.1680619,6.4606715 C 8.0897567,7.3201195 7.2062988,8.026865 7.2048204,8.0312164 c -0.00148,0.00433 0.8804423,0.6959459 1.9598219,1.5368747 l 1.9625077,1.5289619 -0.0024,1.755475 -0.0024,1.755474 -0.03007,0.07512 c -0.03819,0.0954 -0.136743,0.196915 -0.23549,0.242553 -0.09172,0.04239 -0.254133,0.05244 -0.34007,0.02103 z M 1.8005774,11.876547 C 1.679941,11.843877 1.5960756,11.792266 1.4545679,11.663611 0.90168772,11.16095 0.64837392,10.923738 0.61949532,10.881622 c -0.095087,-0.138671 -0.13598178,-0.308551 -0.1109668,-0.460966 0.018567,-0.113127 0.082391,-0.248502 0.1536838,-0.325972 0.058439,-0.06351 1.95236368,-1.7068417 1.97893338,-1.7170998 0.013532,-0.00522 1.9098344,1.7185678 1.9171138,1.7427108 0.00419,0.01389 -2.255919,1.66765 -2.3343374,1.708071 -0.1294216,0.06671 -0.2881997,0.08478 -0.4233447,0.04818 z"
     id="path819"
     inkscape:connector-curvature="0" />
</svg>
